X:1
T: I will if I can
C:
R:Jig
Q:180
K:G
M:6/8
L:1/16
D2|G2B2d2 g2d2B2|d2e2d2 d4B2|G2B2d2 g2d2B2|A2B2A2 A4D2|G2B2d2 g2d2B2|d2e2f2 g2f2g2|e2d2B2 c2B2A2|G2A2G2 G4D2|
G2B2d2 g2d2B2|d2e2d2 d4B2|G2B2d2 g2d2B2|A2B2A2 A4D2|G2B2d2 g2d2B2|d2e2f2 g2f2g2|e2d2B2 c2B2A2|G2A2G2 G4d2|
g4d2 e2d2B2|d2e2d2 d2e2f2|g4d2 e2d2B2|A2B2A2 A4d2|g4d2 e2d2B2|d2e2f2 g2f2e2|d2c2B2 c2B2A2|G2A2G2 G4d2|
g4d2 e2d2B2|d2e2d2 d2e2f2|g4d2 e2d2B2|A2B2A2 A4d2|g4d2 e2d2B2|d2e2f2 g2f2e2|d2c2B2 c2B2A2|G2A2G2 G4||
